X:1
T:Rap 'Er Te Bank
M:6/8
L:1/8
K:D
 d3.99999962500005/5.99999925000009 d3.99999962500005/5.99999925000009 d3.99999962500005/5.99999925000009 d3 B|\
 A/2 F3/2 D4| d3.99999962500005/5.99999925000009 d3.99999962500005/5.99999925000009 d3.99999962500005/5.99999925000009 B3 e|\
 c A3 z A| dd d3 d| c=c B3 B| A A3 GE| F D3 z D| DD D3 F| GA D3 D/2D/2|\
 D2 E3 d| c A3 z A/2A/2| dd d3 d| c=c B3 B| A3 EGE| f d3 z2|

